; generated by Slic3r 1.0.0RC2 on 2014-03-03 at 11:57:17

; layer_height = 0.25
; perimeters = 3
; top_solid_layers = 3
; bottom_solid_layers = 3
; fill_density = 0.4
; perimeter_speed = 15
; infill_speed = 30
; travel_speed = 130
; nozzle_diameter = 0.35
; filament_diameter = 3
; extrusion_multiplier = 1
; perimeters extrusion width = 0.35mm
; infill extrusion width = 0.39mm
; solid infill extrusion width = 0.39mm
; top infill extrusion width = 0.39mm
; first layer extrusion width = 0.70mm

G21 ; set units to millimeters
M107
M190 S110 ; wait for bed temperature to be reached
M104 S225 ; set temperature
G28 ; home all axes
M109 S225 ; wait for temperature to be reached
G90 ; use absolute coordinates
G92 E0
M82 ; use absolute distances for extrusion
G1 F1800.000 E-1.00000
G92 E0
G1 Z0.150 F7800.000
G1 X93.810 Y86.005 F7800.000
G1 E1.00000 F1800.000
G1 X94.810 Y85.175 E1.04021 F270.000
G1 X95.950 Y84.565 E1.08022
G1 X97.200 Y84.185 E1.12064
G1 X98.490 Y84.065 E1.16073
G1 X101.500 Y84.065 E1.25386
G1 X102.790 Y84.185 E1.29395
G1 X104.040 Y84.565 E1.33437
G1 X105.180 Y85.175 E1.37438
G1 X106.180 Y86.005 E1.41459
G1 X107.010 Y87.005 E1.45480
G1 X107.620 Y88.145 E1.49480
G1 X108.000 Y89.395 E1.53523
G1 X108.120 Y90.685 E1.57531
G1 X108.120 Y92.785 E1.64029
G1 X108.000 Y94.075 E1.68038
G1 X107.620 Y95.325 E1.72080
G1 X107.010 Y96.465 E1.76081
G1 X106.180 Y97.465 E1.80102
G1 X105.180 Y98.295 E1.84123
G1 X104.040 Y98.905 E1.88123
G1 X102.790 Y99.285 E1.92166
G1 X101.500 Y99.405 E1.96174
G1 X98.490 Y99.405 E2.05488
G1 X97.200 Y99.285 E2.09496
G1 X95.950 Y98.905 E2.13539
G1 X94.810 Y98.295 E2.17539
G1 X93.810 Y97.465 E2.21560
G1 X92.980 Y96.465 E2.25582
G1 X92.370 Y95.325 E2.29582
G1 X91.990 Y94.075 E2.33625
G1 X91.870 Y92.785 E2.37633
G1 X91.870 Y90.685 E2.44131
G1 X91.990 Y89.395 E2.48140
G1 X92.370 Y88.145 E2.52182
G1 X92.980 Y87.005 E2.56182
G1 X93.750 Y86.077 E2.59914
G1 F1800.000 E1.59914
G92 E0
G1 X98.850 Y91.045 F7800.000
G1 E1.00000 F1800.000
G1 X101.150 Y91.045 E1.07117 F540.000
G1 X101.150 Y92.445 E1.11450
G1 X98.850 Y92.445 E1.18566
G1 X98.850 Y91.138 E1.22609
G1 X99.391 Y91.357 F7800.000
G1 X99.475 Y91.746 F7800.000
G1 X100.450 Y91.670 E1.26207 F360.000
G1 X100.525 Y91.744 E1.26594 F360.000
G1 X99.550 Y91.820 F7800.000
G1 X99.475 Y91.746 E1.26980 F360.000
M106 S255
G1 F1800.000 E0.26980
G92 E0
G1 Z0.400 F7800.000
G1 X99.375 Y92.568 F7800.000
G1 E1.00000 F1800.000
G1 X99.375 Y90.922 E1.02037 F600.000
G1 X100.625 Y90.922 E1.03585
G1 X100.625 Y92.568 E1.05622
G1 X99.427 Y92.568 E1.07104
G1 X99.025 Y92.918 F7800.000
M106 S255
G1 X99.025 Y92.795 E1.07271 F1800
M106 S255
G1 X99.025 Y90.695 E1.09871 F600.000
M106 S255
G1 X99.025 Y90.572 E1.10038 F1800
G1 X100.975 Y90.572 E1.12693
G1 X100.975 Y90.695 E1.12860
M106 S255
G1 X100.975 Y92.795 E1.15460 F600.000
M106 S255
G1 X100.975 Y92.918 E1.15627 F1800
G1 X99.077 Y92.918 E1.18209
M106 S255
G1 X98.675 Y93.268 F7800.000
M106 S255
G1 X98.675 Y92.795 E1.18853 F1800
M106 S255
G1 X98.675 Y90.695 E1.21453 F600.000
M106 S255
G1 X98.675 Y90.222 E1.22096 F1800
G1 X101.325 Y90.222 E1.25703
G1 X101.325 Y90.695 E1.26347
M106 S255
G1 X101.325 Y92.795 E1.28947 F600.000
M106 S255
G1 X101.325 Y93.268 E1.29590 F1800
G1 X98.727 Y93.268 E1.33126
M106 S255
G1 X98.850 Y92.965 F7800.000
G1 X100.385 Y92.284 F7800.000
G1 X100.342 Y92.328 E1.33221 F600.000
G1 X99.725 Y92.328 E1.34171
G1 X100.385 Y91.668 E1.35611
G1 X100.275 Y91.162 E1.36409
G1 X99.615 Y91.822 E1.37849
G1 X99.615 Y91.205 E1.38799
G1 X99.658 Y91.162 E1.38894
G1 F1800.000 E0.38894
G92 E0
G1 Z0.650 F7800.000
G1 X99.375 Y90.576 F7800.000
G1 E1.00000 F1800.000
G1 X100.625 Y90.576 E1.01547 F600.000
G1 X100.625 Y92.913 E1.04440
G1 X99.375 Y92.913 E1.05987
G1 X99.375 Y90.629 E1.08815
G1 X99.025 Y90.226 F7800.000
G1 X100.975 Y90.226 E1.11229 F600.000
G1 X100.975 Y93.263 E1.14988
G1 X99.025 Y93.263 E1.17402
G1 X99.025 Y90.279 E1.21096
G1 X98.675 Y89.876 F7800.000
M106 S255
G1 X101.325 Y89.876 E1.24703 F1800
G1 X101.325 Y90.047 E1.24935
M106 S255
G1 X101.325 Y93.443 E1.29139 F600.000
M106 S255
G1 X101.325 Y93.613 E1.29371 F1800
G1 X98.675 Y93.613 E1.32978
G1 X98.675 Y93.443 E1.33210
M106 S255
G1 X98.675 Y90.047 E1.37413 F600.000
M106 S255
G1 X98.675 Y89.929 E1.37574 F1800
M106 S255
G1 X98.978 Y90.051 F7800.000
G1 X100.341 Y90.816 F7800.000
G1 X100.386 Y90.861 E1.37675 F600.000
G1 X100.386 Y91.496 E1.38684
G1 X99.706 Y90.816 E1.40211
G1 X99.614 Y91.359 E1.41086
G1 X100.386 Y92.131 E1.42820
G1 X100.294 Y92.674 E1.43695
G1 X99.614 Y91.994 E1.45223
G1 X99.614 Y92.629 E1.46232
G1 X99.659 Y92.674 E1.46332
G1 F1800.000 E0.46332
G92 E0
G1 Z0.900 F7800.000
G1 X99.375 Y93.188 F7800.000
G1 E1.00000 F1800.000
G1 X99.375 Y90.302 E1.03573 F600.000
G1 X100.625 Y90.302 E1.05120
G1 X100.625 Y93.188 E1.08694
G1 X99.427 Y93.188 E1.10176
G1 X99.025 Y93.538 F7800.000
G1 X99.025 Y89.952 E1.14616 F600.000
G1 X100.975 Y89.952 E1.17030
G1 X100.975 Y93.538 E1.21469
G1 X99.077 Y93.538 E1.23818
G1 X98.675 Y93.888 F7800.000
M106 S255
G1 X98.675 Y93.788 E1.23954 F1800
M106 S255
G1 X98.675 Y89.701 E1.29013 F600.000
M106 S255
G1 X98.675 Y89.602 E1.29149 F1800
G1 X101.325 Y89.602 E1.32756
G1 X101.325 Y89.701 E1.32892
M106 S255
G1 X101.325 Y93.788 E1.37951 F600.000
M106 S255
G1 X101.325 Y93.888 E1.38087 F1800
G1 X98.727 Y93.888 E1.41622
M106 S255
G1 X98.850 Y93.585 F7800.000
G1 X100.385 Y92.905 F7800.000
G1 X100.342 Y92.948 E1.41718 F600.000
G1 X99.724 Y92.948 E1.42673
G1 X100.385 Y92.287 E1.44119
G1 X100.385 Y91.669 E1.45075
G1 X99.615 Y92.439 E1.46759
G1 X99.615 Y91.821 E1.47714
G1 X100.385 Y91.051 E1.49399
G1 X100.276 Y90.541 E1.50204
G1 X99.615 Y91.203 E1.51650
G1 X99.615 Y90.585 E1.52605
G1 X99.658 Y90.541 E1.52701
G1 F1800.000 E0.52701
G92 E0
G1 Z1.150 F7800.000
G1 X99.375 Y90.071 F7800.000
G1 E1.00000 F1800.000
G1 X100.625 Y90.071 E1.01547 F600.000
G1 X100.625 Y93.418 E1.05690
G1 X99.375 Y93.418 E1.07238
G1 X99.375 Y90.124 E1.11316
G1 X99.025 Y89.721 F7800.000
G1 X100.975 Y89.721 E1.13729 F600.000
G1 X100.975 Y93.768 E1.18739
G1 X99.025 Y93.768 E1.21153
G1 X99.025 Y89.774 E1.26097
G1 X98.675 Y89.371 F7800.000
M106 S255
G1 X101.325 Y89.371 E1.29704 F1800
G1 X101.325 Y89.427 E1.29779
M106 S255
G1 X101.325 Y94.063 E1.35519 F600.000
M106 S255
G1 X101.325 Y94.118 E1.35594 F1800
G1 X98.675 Y94.118 E1.39201
G1 X98.675 Y94.063 E1.39276
M106 S255
G1 X98.675 Y89.427 E1.45015 F600.000
M106 S255
G1 X98.675 Y89.424 E1.45019 F1800
M106 S255
G1 X98.978 Y89.546 F7800.000
G1 X100.343 Y90.312 F7800.000
G1 X100.384 Y90.354 E1.45106 F600.000
G1 X100.384 Y90.946 E1.45982
G1 X99.751 Y90.312 E1.47308
G1 X99.616 Y90.769 E1.48013
G1 X100.384 Y91.537 E1.49622
G1 X100.384 Y92.129 E1.50497
G1 X99.616 Y91.361 E1.52106
G1 X99.616 Y91.952 E1.52982
G1 X100.384 Y92.721 E1.54591
G1 X100.249 Y93.178 E1.55295
G1 X99.616 Y92.544 E1.56622
G1 X99.616 Y93.136 E1.57497
G1 X99.657 Y93.178 E1.57585
G1 F1800.000 E0.57585
G92 E0
G1 Z1.400 F7800.000
G1 X99.375 Y93.586 F7800.000
G1 E1.00000 F1800.000
G1 X99.375 Y89.903 E1.04559 F600.000
G1 X100.625 Y89.903 E1.06106
G1 X100.625 Y93.586 E1.10665
G1 X99.427 Y93.586 E1.12148
G1 X99.025 Y93.936 F7800.000
G1 X99.025 Y89.553 E1.17573 F600.000
G1 X100.975 Y89.553 E1.19987
G1 X100.975 Y93.936 E1.25413
G1 X99.077 Y93.936 E1.27761
G1 X98.675 Y94.286 F7800.000
G1 X98.675 Y89.203 E1.34053 F600.000
G1 X101.325 Y89.203 E1.37334
G1 X101.325 Y94.286 E1.43626
G1 X98.727 Y94.286 E1.46841
G1 X98.850 Y93.983 F7800.000
G1 X100.383 Y93.305 F7800.000
G1 X100.344 Y93.344 E1.46918 F600.000
G1 X99.789 Y93.344 E1.47689
G1 X100.383 Y92.750 E1.48857
G1 X100.383 Y92.195 E1.49628
G1 X99.617 Y92.961 E1.51132
G1 X99.617 Y92.406 E1.51903
G1 X100.383 Y91.639 E1.53408
G1 X100.383 Y91.084 E1.54179
G1 X99.617 Y91.850 E1.55683
G1 X99.617 Y91.295 E1.56454
G1 X100.383 Y90.529 E1.57959
G1 X100.211 Y90.145 E1.58542
G1 X99.617 Y90.740 E1.59710
G1 X99.617 Y90.185 E1.60481
G1 X99.656 Y90.145 E1.60558
G1 F1800.000 E0.60558
G92 E0
G1 Z1.650 F7800.000
G1 X99.025 Y93.137 F7800.000
G1 E1.00000 F1800.000
G1 X100.975 Y93.137 E1.02414 F600.000
G1 X100.975 Y94.093 E1.03597
G1 X99.025 Y94.093 E1.06011
G1 X99.025 Y93.189 E1.07129
G1 X98.675 Y92.787 F7800.000
G1 X101.325 Y92.787 E1.10410 F600.000
G1 X101.325 Y94.443 E1.12459
G1 X98.675 Y94.443 E1.15740
G1 X98.675 Y92.839 E1.17724
G1 X98.978 Y92.962 F7800.000
G1 X99.603 Y93.469 F7800.000
G1 X99.895 Y93.760 E1.18242 F600.000
G1 X100.105 Y93.469 E1.18693 F600.000
G1 X100.397 Y93.760 E1.19210 F600.000
G1 X100.643 Y93.504 E1.19656 F600.000
G1 X100.607 Y93.469 E1.19719 F600.000
G1 X99.603 Y93.469 F7800.000
G1 X99.357 Y93.725 E1.20164 F600.000
G1 X99.393 Y93.760 E1.20227 F600.000
G1 F1800.000 E0.20227
G92 E0
G1 X99.393 Y90.021 F7800.000
G1 E1.00000 F1800.000
G1 X99.357 Y89.985 E1.00063 F600.000
G1 X99.603 Y89.729 E1.00509 F600.000
G1 X99.895 Y90.021 E1.01026 F600.000
G1 X100.105 Y89.729 E1.01477 F600.000
G1 X100.397 Y90.021 E1.01994 F600.000
G1 X100.643 Y89.765 E1.02440 F600.000
G1 X100.607 Y89.729 E1.02503 F600.000
G1 X100.975 Y89.397 F7800.000
G1 X100.975 Y90.353 E1.03686 F600.000
G1 X99.025 Y90.353 E1.06100
G1 X99.025 Y89.397 E1.07283
G1 X100.923 Y89.397 E1.09632
G1 X101.325 Y89.047 F7800.000
G1 X101.325 Y90.703 E1.11682 F600.000
G1 X98.675 Y90.703 E1.14962
G1 X98.675 Y89.047 E1.17012
G1 X101.272 Y89.047 E1.20227
G1 X101.150 Y89.350 F7800.000
G1 F1800.000 E0.20227
G92 E0
G1 Z1.900 F7800.000
G1 X100.975 Y93.477 F7800.000
G1 E1.00000 F1800.000
G1 X100.975 Y94.202 E1.00898 F600.000
G1 X99.025 Y94.202 E1.03312
G1 X99.025 Y93.477 E1.04210
G1 X100.923 Y93.477 E1.06559
G1 X101.325 Y93.127 F7800.000
G1 X101.325 Y94.552 E1.08323 F600.000
G1 X98.675 Y94.552 E1.11603
G1 X98.675 Y93.127 E1.13368
G1 X101.272 Y93.127 E1.16583
G1 X101.150 Y93.430 F7800.000
G1 X100.638 Y93.840 F7800.000
G1 X100.602 Y93.875 E1.16663 F600.000
G1 X100.035 Y93.804 E1.17574 F600.000
G1 X99.965 Y93.875 E1.17733 F600.000
G1 X99.398 Y93.804 E1.18645 F600.000
G1 X99.362 Y93.840 E1.18724 F600.000
G1 F1800.000 E0.18724
G92 E0
G1 X99.362 Y89.650 F7800.000
G1 E1.00000 F1800.000
G1 X99.398 Y89.615 E1.00080 F600.000
G1 X99.965 Y89.685 E1.00991 F600.000
G1 X100.035 Y89.615 E1.01150 F600.000
G1 X100.602 Y89.685 E1.02062 F600.000
G1 X100.638 Y89.650 E1.02141 F600.000
G1 X100.975 Y89.287 F7800.000
G1 X100.975 Y90.013 E1.03039 F600.000
G1 X99.025 Y90.013 E1.05453
G1 X99.025 Y89.287 E1.06351
G1 X100.923 Y89.287 E1.08700
G1 X101.325 Y88.937 F7800.000
G1 X101.325 Y90.363 E1.10464 F600.000
G1 X98.675 Y90.363 E1.13745
G1 X98.675 Y88.937 E1.15509
G1 X101.272 Y88.937 E1.18724
G1 X101.150 Y89.241 F7800.000
G1 F1800.000 E0.18724
G92 E0
G1 Z2.150 F7800.000
G1 X100.975 Y93.691 F7800.000
G1 E1.00000 F1800.000
G1 X100.975 Y94.304 E1.00759 F600.000
G1 X99.025 Y94.304 E1.03173
G1 X99.025 Y93.691 E1.03933
G1 X100.923 Y93.691 E1.06282
G1 X101.325 Y93.341 F7800.000
G1 X101.325 Y94.654 E1.07908 F600.000
G1 X98.675 Y94.654 E1.11188
G1 X98.675 Y93.341 E1.12814
G1 X101.272 Y93.341 E1.16029
G1 X101.150 Y93.644 F7800.000
G1 X100.739 Y93.945 F7800.000
G1 X100.721 Y93.926 E1.16047 F600.000
G1 X100.739 Y93.945 F7800.000
G1 X100.599 Y94.069 E1.16170 F600.000
G1 X100.457 Y93.926 E1.16303 F600.000
G1 X100.335 Y94.069 E1.16427 F600.000
G1 X100.193 Y93.926 E1.16559 F600.000
G1 X100.071 Y94.069 E1.16683 F600.000
G1 X99.929 Y93.926 E1.16816 F600.000
G1 X99.807 Y94.069 E1.16939 F600.000
G1 X99.665 Y93.926 E1.17072 F600.000
G1 X99.543 Y94.069 E1.17196 F600.000
G1 X99.401 Y93.926 E1.17328 F600.000
G1 X99.261 Y94.050 E1.17452 F600.000
G1 X99.279 Y94.069 E1.17469 F600.000
G1 F1800.000 E0.17469
G92 E0
G1 X99.279 Y89.563 F7800.000
G1 E1.00000 F1800.000
G1 X99.261 Y89.545 E1.00017 F600.000
G1 X99.401 Y89.421 E1.00141 F600.000
G1 X99.543 Y89.563 E1.00274 F600.000
G1 X99.665 Y89.421 E1.00397 F600.000
G1 X99.807 Y89.563 E1.00530 F600.000
G1 X99.929 Y89.421 E1.00653 F600.000
G1 X100.071 Y89.563 E1.00786 F600.000
G1 X100.193 Y89.421 E1.00910 F600.000
G1 X100.335 Y89.563 E1.01043 F600.000
G1 X100.457 Y89.421 E1.01166 F600.000
G1 X100.599 Y89.563 E1.01299 F600.000
G1 X100.739 Y89.440 E1.01422 F600.000
G1 X100.721 Y89.421 E1.01440 F600.000
G1 X100.975 Y89.185 F7800.000
G1 X100.975 Y89.799 E1.02199 F600.000
G1 X99.025 Y89.799 E1.04613
G1 X99.025 Y89.185 E1.05373
G1 X100.923 Y89.185 E1.07721
G1 X101.325 Y88.835 F7800.000
G1 X101.325 Y90.149 E1.09347 F600.000
G1 X98.675 Y90.149 E1.12628
G1 X98.675 Y88.835 E1.14254
G1 X101.272 Y88.835 E1.17469
G1 X101.150 Y89.139 F7800.000
G1 F1800.000 E0.17469
G92 E0
G1 Z2.400 F7800.000
G1 X100.975 Y93.839 F7800.000
G1 E1.00000 F1800.000
G1 X100.975 Y94.368 E1.00654 F600.000
G1 X99.025 Y94.368 E1.03068
G1 X99.025 Y93.839 E1.03722
G1 X100.923 Y93.839 E1.06071
G1 X101.325 Y93.489 F7800.000
G1 X101.325 Y94.718 E1.07591 F600.000
G1 X98.675 Y94.718 E1.10872
G1 X98.675 Y93.489 E1.12392
G1 X101.272 Y93.489 E1.15608
G1 X101.150 Y93.792 F7800.000
G1 X100.741 Y94.112 F7800.000
G1 X100.719 Y94.133 E1.15630 F600.000
G1 X100.479 Y94.074 E1.15815 F600.000
G1 X100.420 Y94.133 E1.15879 F600.000
G1 X100.180 Y94.074 E1.16064 F600.000
G1 X100.120 Y94.133 E1.16127 F600.000
G1 X99.880 Y94.074 E1.16312 F600.000
G1 X99.820 Y94.133 E1.16376 F600.000
G1 X99.580 Y94.074 E1.16561 F600.000
G1 X99.521 Y94.133 E1.16624 F600.000
G1 X99.281 Y94.074 E1.16809 F600.000
G1 X99.259 Y94.095 E1.16832 F600.000
G1 F1800.000 E0.16832
G92 E0
G1 X99.521 Y89.416 F7800.000
G1 E1.00000 F1800.000
G1 X99.281 Y89.357 E1.00185 F600.000
G1 X99.259 Y89.378 E1.00208 F600.000
G1 X99.521 Y89.416 F7800.000
G1 X99.580 Y89.357 E1.00271 F600.000
G1 X99.820 Y89.416 E1.00456 F600.000
G1 X99.880 Y89.357 E1.00519 F600.000
G1 X100.120 Y89.416 E1.00705 F600.000
G1 X100.180 Y89.357 E1.00768 F600.000
G1 X100.420 Y89.416 E1.00953 F600.000
G1 X100.479 Y89.357 E1.01017 F600.000
G1 X100.719 Y89.416 E1.01202 F600.000
G1 X100.741 Y89.395 E1.01224 F600.000
G1 X100.975 Y89.651 F7800.000
G1 X99.025 Y89.651 E1.03638 F600.000
G1 X99.025 Y89.122 E1.04292
G1 X100.975 Y89.122 E1.06706
G1 X100.975 Y89.598 E1.07295
G1 X101.325 Y90.001 F7800.000
G1 X98.675 Y90.001 E1.10576 F600.000
G1 X98.675 Y88.772 E1.12096
G1 X101.325 Y88.772 E1.15376
G1 X101.325 Y89.948 E1.16832
G1 X101.022 Y89.826 F7800.000
G1 F1800.000 E0.16832
G92 E0
G1 Z2.650 F7800.000
G1 X100.975 Y93.939 F7800.000
G1 E1.00000 F1800.000
G1 X100.975 Y94.427 E1.00605 F600.000
G1 X99.025 Y94.427 E1.03019
G1 X99.025 Y93.939 E1.03623
G1 X100.923 Y93.939 E1.05972
G1 X101.325 Y93.589 F7800.000
G1 X101.325 Y94.777 E1.07443 F600.000
G1 X98.675 Y94.777 E1.10724
G1 X98.675 Y93.589 E1.12195
G1 X101.272 Y93.589 E1.15410
G1 X101.150 Y93.892 F7800.000
G1 F1800.000 E0.15410
G92 E0
G1 X100.975 Y89.551 F7800.000
G1 E1.00000 F1800.000
G1 X99.025 Y89.551 E1.02414 F600.000
G1 X99.025 Y89.062 E1.03019
G1 X100.975 Y89.062 E1.05432
G1 X100.975 Y89.498 E1.05972
G1 X101.325 Y89.901 F7800.000
G1 X98.675 Y89.901 E1.09252 F600.000
G1 X98.675 Y88.712 E1.10724
G1 X101.325 Y88.712 E1.14004
G1 X101.325 Y89.848 E1.15410
G1 X101.022 Y89.726 F7800.000
G1 F1800.000 E0.15410
G92 E0
G1 Z2.900 F7800.000
G1 X100.975 Y93.998 F7800.000
G1 E1.00000 F1800.000
G1 X100.975 Y94.448 E1.00557 F600.000
G1 X99.025 Y94.448 E1.02971
G1 X99.025 Y93.998 E1.03528
G1 X100.923 Y93.998 E1.05877
G1 X101.325 Y93.648 F7800.000
G1 X101.325 Y94.798 E1.07300 F600.000
G1 X98.675 Y94.798 E1.10581
G1 X98.675 Y93.648 E1.12004
G1 X101.272 Y93.648 E1.15220
G1 X101.150 Y93.951 F7800.000
G1 F1800.000 E0.15220
G92 E0
G1 X100.975 Y89.492 F7800.000
G1 E1.00000 F1800.000
G1 X99.025 Y89.492 E1.02414 F600.000
G1 X99.025 Y89.042 E1.02971
G1 X100.975 Y89.042 E1.05385
G1 X100.975 Y89.439 E1.05877
G1 X101.325 Y89.842 F7800.000
G1 X98.675 Y89.842 E1.09157 F600.000
G1 X98.675 Y88.692 E1.10581
G1 X101.325 Y88.692 E1.13861
G1 X101.325 Y89.789 E1.15220
G1 X101.022 Y89.667 F7800.000
G1 F1800.000 E0.15220
G92 E0
G1 Z3.150 F7800.000
G1 X100.975 Y94.019 F7800.000
G1 E1.00000 F1800.000
G1 X100.975 Y94.469 E1.00557 F600.000
G1 X99.025 Y94.469 E1.02971
G1 X99.025 Y94.019 E1.03528
G1 X100.923 Y94.019 E1.05877
G1 X101.325 Y93.669 F7800.000
G1 X101.325 Y94.819 E1.07300 F600.000
G1 X98.675 Y94.819 E1.10581
G1 X98.675 Y93.669 E1.12004
